resources/icons/16px/horizontal-inbetween.svg

<svg width="16" height="16" viewBox="0 0 16 16" fill="none" xmlns="http://www.w3.org/2000/svg">
<path fill-rule="evenodd" clip-rule="evenodd" d="M0 16V0H1C1.55228 0 2 0.447715 2 1V15C2 15.5523 1.55228 16 1 16H0ZM15 0H16V16H15C14.4477 16 14 15.5523 14 15V1C14 0.447715 14.4477 0 15 0ZM6.70708 6.70711C7.0976 6.31658 7.0976 5.68342 6.70708 5.29289C6.31655 4.90237 5.68339 4.90237 5.29286 5.29289L3.29286 7.29289C2.90234 7.68342 2.90234 8.31658 3.29286 8.70711L5.29286 10.7071C5.68339 11.0976 6.31655 11.0976 6.70708 10.7071C7.0976 10.3166 7.0976 9.68342 6.70708 9.29289L5.41418 8L6.70708 6.70711ZM10.7071 5.29289C10.3166 4.90237 9.68339 4.90237 9.29286 5.29289C8.90234 5.68342 8.90234 6.31658 9.29286 6.70711L10.5858 8L9.29286 9.29289C8.90234 9.68342 8.90234 10.3166 9.29286 10.7071C9.68339 11.0976 10.3166 11.0976 10.7071 10.7071L12.7071 8.70711C13.0976 8.31658 13.0976 7.68342 12.7071 7.29289L10.7071 5.29289Z" fill="black"/>
</svg>

<svg xmlns="http://www.w3.org/2000/svg" viewBox="0 0 16 16">
  <path d="M0 16V0h1a1 1 0 0 1 1 1v14a1 1 0 0 1-1 1zM15 0h1v16h-1a1 1 0 0 1-1-1V1a1 1 0 0 1 1-1M6.707 6.707a1 1 0 0 0-1.414-1.414l-2 2a1 1 0 0 0 0 1.414l2 2a1 1 0 0 0 1.414-1.414L5.414 8zm4-1.414a1 1 0 0 0-1.414 1.414L10.586 8 9.293 9.293a1 1 0 1 0 1.414 1.414l2-2a1 1 0 0 0 0-1.414z"/>
</svg>
